newicons/libretranslater.svg

<svg xmlns="http://www.w3.org/2000/svg" viewBox="0 0 48 48" fill="none" stroke="#000" stroke-linejoin="round" xmlns:v="https://vecta.io/nano"><path d="M8.4 6.45v35.1a1.95 1.95 0 0 0 1.95 1.95h2.376v-39H10.35A1.95 1.95 0 0 0 8.4 6.45z"/><path d="M12.726 4.5v39H37.65a1.95 1.95 0 0 0 1.95-1.95V6.45a1.95 1.95 0 0 0-1.95-1.95z"/><g stroke-linecap="round"><path d="M21.332 24.399v6.862h6.862m2.014 4.214l2.813-8.452m2.697 8.477l-2.697-8.477m1.795 5.641h-3.672"/><path d="M19.564 26.166l1.768-1.767 1.767 1.767m3.328 3.328l1.767 1.767-1.767 1.768"/><path d="M18.675 14.515C19.185 19.21 21.42 20.8 25.44 22m-2.115-7.485C22.815 19.21 20.58 20.8 16.56 22M21 12.88v1.62m-4.5 0h9" paint-order="fill markers stroke"/></g></svg>

<?xml version="1.0" encoding="UTF-8"?><svg id="b" xmlns="http://www.w3.org/2000/svg" viewBox="0 0 48 48"><defs><style>.f,.g{fill:none;stroke:#fff;stroke-linejoin:round;}.g{stroke-linecap:round;}</style></defs><path class="f" d="M8.4,6.45v35.1c0,1.077.873,1.95,1.95,1.95h2.376V4.5h-2.376c-1.077,0-1.95.873-1.95,1.95h0Z"/><path class="f" d="M12.726,4.5v39h24.924c1.077,0,1.95-.873,1.95-1.95h0V6.45c0-1.077-.873-1.95-1.95-1.95H12.726Z"/><path class="g" d="M21.332,24.399v6.862h6.862M30.208,35.475l2.813-8.452M35.718,35.5l-2.697-8.477M34.816,32.664h-3.672"/><path class="g" d="M19.564,26.166l1.768-1.767,1.767,1.767M26.427,29.494l1.767,1.767-1.767,1.768"/><path class="g" d="M18.675,14.515c.51,4.695,2.745,6.285,6.765,7.485M23.325,14.515c-.51,4.695-2.745,6.285-6.765,7.485M21,12.88v1.62M16.5,14.5h9"/></svg>
